X:1
T:La Floretta
T:La Floretta
T:Giovanni Ghizzolo
C:Giovanni Ghizzolo
%%score 1 { 2 | 3 }
L:1/8
Q:1/4=120
M:4/4
K:F
V:1 treble nm="Soprano" snm="S"
V:2 treble nm="MusicXML Part"
V:3 bass 
V:1
"^Source: Madrigale et Arie---Libro terzo---Venetia---A.Raverij---1609.\nEditor: André Vierendeels (27/12/09)\nContinuo: André Vierendeels." cA Bc d2 cB | %1
w: La _ Flo- * ret- ta _|
w: Ques- * ti- * fio- ri _|
w: Spie- * ga _ spie- ga _|
w: Tu _ nas- * con- di _|
 A2 A"^SCHERZO"B G2 G2 | BG AB c2 BA | G2 GA F2 F2 :: FE FG A2 GF | G2 AB B2 B2 :: dc BA B2 G2 | %7
w: su l'her _ bet- ta|nel- * ma- * ti- no _|fa suo in- chi- no.|A _ que _ sol ch'il _|mon- d'in- * do- ra,|Deh _ Flo- * ret- ta|
w: mi- sti'a- * mo- ri|van _ spie- * gan- do _|tu an- * tan- do,|spie- * ga- * l'o- pre _|del tuo _ o- re,|che _ piu _ bel- li|
w: deh non _ nie- ga|tuoi _ a- * mo- ri _|a i pas- to- ri.|Che _ pri- * gion ha _|tua bel _ ta- de,|Bel- * la- * Flo- ra|
w: tu con- * fon- di|tra _ pas- * to- ri _|tuoi A- * mo- ri,|O- * gn'un _ cre- de _|e'in- ga- * na- to.|Mi- * se- * rel- li|
 cB AG A2 F2 | BA Bc d2 GA | A3 G G2 G2 | AG AB c2 FG | G3 F F2 F2 :| %12
w: vez- * zo- * set- ta|chi- * per _ te non _|s'in- na- mo- ra,|chi- * per- * te non _|s'in- na- mo- ra.|
w: fior _ no- * vel- li|nel _ tuo _ re- gno _|non h'A- mo- re|nel _ tuo _ re- gno _|non h'A- mo- re.|
w: ch'in- * na- * mo- ra|can- * tan _ qui per _|le con- tra- de|can- * tan _ qui per _|le con- tra- de.|
w: po- * ve- * rel- li|d'es- * ser _ so- lo _|ri- a- ma- to|d'es- * ser _ so- lo _|ri- a- ma- to.|
V:2
 [FAc]2 [GB]2 [FA]2 [DG]2 | [EA]2 [^EA]2 [DGB]4 | [GB]2 [FA]2 [EG]2 [EA]2 | [DG]2 [EG]2 [FAc]4 :: %4
 [FAc]6 [FA]2 | [GB]2 [FAc]2 [GB]4 :: [DFB]4 [DGB]4 | [FAc]4 [Ac]4 | [DG]2 [GB]2 [DA]2 [DG]2 | %9
 [_EG]2 [D^F]2 [DG]4 | [CF]2 [DF]2 [EG]2 [Fc]2 | [DB]2 [EG]2 [CFA]4 :| %12
V:3
 F,2 _E,2 D,2 B,,2 | C,2 D,2 G,,4 | _E,2 D,2 C,2 A,,2 | B,,2 C,2 F,,4 :: F,,4 F,2 D,2 | %5
 _E,2 F,2 B,,4 :: B,4 G,4 | %7
 A,4"^Scopri, scopri\nNe ricopri\nLa tua brama\nA chi t'ama\nChe s'occulta la terrai\nPalesarla\nDechiararla\nVerrai quando non potrai""^Forsi Amori\nTi die un core\nSi inconstante\nChe d'amante\nNon ritenga impresso un viso\nDi te stesia\nForsi impressa\nFinirai come Narciso" F,4 | %8
 G,2 _E,2 D,2 B,,2 | %9
"^Scopri scopri\nNe ricopri\nLa tua brama\nA chi t'ama\nChe s'occulta la terrai\nPalesarla\nDechiararla\nVerrai quando non potrai" C,2 D,2 G,,4 | %10
 F,2 D,2 C,2 A,,2 | %11
"^Notes: Original clefs: Ut 1st, Fa 4rth\n           Dedication: Al Molt.Illust.Sig.Filippo Aresi." B,,2 C,2 F,,4 :| %12

